X:67
T:Frogs in The S
R:jig
C:Bruce Osborne - Mar. 2002
Z:abc by bosborne@kos.net
M:6/8
L:1/8
K:Fmaj
A/B/|cAc dBd|cAF FEF|GEC CDE|FAd c2 A/B/|\
cAc dBd|cAF FEF|GEC CDE|FAG F2:|
|:A/B/|cAc cAc|dBd cAF|EDE CDE|FAd c2 A/B/|\
cAc cAc|dBd cAF|EDE CDE|FAG F2:|
